assets/icons/star.svg

<svg xmlns="http://www.w3.org/2000/svg" class="icon" viewBox="0 0 512 512">
  <path d="M 256 8.629213483146067 Q 270.3820224719101 9.588014981273409 277.0936329588015 22.05243445692884 L 342.29213483146066 157.24344569288388 L 342.29213483146066 157.24344569288388 L 488.9887640449438 178.3370786516854 L 488.9887640449438 178.3370786516854 Q 503.3707865168539 181.2134831460674 508.1647940074906 194.63670411985018 Q 512 208.05992509363296 502.41198501872657 217.64794007490636 L 395.98501872659176 323.11610486891385 L 395.98501872659176 323.11610486891385 L 420.9138576779026 472.68913857677904 L 420.9138576779026 472.68913857677904 Q 422.8314606741573 486.1123595505618 411.3258426966292 495.7003745318352 Q 399.82022471910113 503.3707865168539 387.3558052434457 496.65917602996257 L 256 426.6666666666667 L 256 426.6666666666667 L 124.64419475655431 496.65917602996257 L 124.64419475655431 496.65917602996257 Q 112.17977528089888 503.3707865168539 100.67415730337079 494.7415730337079 Q 89.1685393258427 486.1123595505618 91.08614232209737 472.68913857677904 L 116.01498127340824 323.11610486891385 L 116.01498127340824 323.11610486891385 L 9.588014981273409 217.64794007490636 L 9.588014981273409 217.64794007490636 Q 0 208.05992509363296 3.8352059925093633 194.63670411985018 Q 8.629213483146067 181.2134831460674 23.01123595505618 178.3370786516854 L 169.7078651685393 157.24344569288388 L 169.7078651685393 157.24344569288388 L 234.9063670411985 22.05243445692884 L 234.9063670411985 22.05243445692884 Q 241.61797752808988 9.588014981273409 256 8.629213483146067 L 256 8.629213483146067 Z M 256 84.37453183520599 L 205.18352059925093 187.9250936329588 L 256 84.37453183520599 L 205.18352059925093 187.9250936329588 Q 200.38951310861424 198.47191011235955 187.9250936329588 201.34831460674158 L 74.78651685393258 217.64794007490636 L 74.78651685393258 217.64794007490636 L 157.24344569288388 299.14606741573033 L 157.24344569288388 299.14606741573033 Q 164.91385767790263 307.7752808988764 163.95505617977528 319.2808988764045 L 143.82022471910113 434.3370786516854 L 143.82022471910113 434.3370786516854 L 245.45318352059925 380.6441947565543 L 245.45318352059925 380.6441947565543 Q 256 374.89138576779027 266.5468164794008 380.6441947565543 L 367.2209737827715 434.3370786516854 L 367.2209737827715 434.3370786516854 L 348.0449438202247 319.2808988764045 L 348.0449438202247 319.2808988764045 Q 346.12734082397003 307.7752808988764 354.7565543071161 299.14606741573033 L 437.2134831460674 217.64794007490636 L 437.2134831460674 217.64794007490636 L 324.0749063670412 201.34831460674158 L 324.0749063670412 201.34831460674158 Q 311.6104868913858 198.47191011235955 306.8164794007491 187.9250936329588 L 256 84.37453183520599 L 256 84.37453183520599 Z" />
</svg>

<svg xmlns="http://www.w3.org/2000/svg" class="icon" viewBox="0 0 512 512">
  <path
    d="M256 8.63q14.382.958 21.094 13.422l65.198 135.191 146.697 21.094q14.382 2.876 19.176 16.3 3.835 13.423-5.753 23.01l-106.427 105.47 24.929 149.572q1.917 13.423-9.588 23.011-11.506 7.67-23.97.96L256 426.666l-131.356 69.992q-12.464 6.712-23.97-1.917-11.505-8.63-9.588-22.053l24.929-149.573L9.588 217.648Q0 208.06 3.835 194.637q4.794-13.424 19.176-16.3l146.697-21.094 65.198-135.19Q241.618 9.587 256 8.628m0 75.745-50.816 103.55zl-50.816 103.55q-4.794 10.547-17.259 13.423l-113.138 16.3 82.456 81.498q7.67 8.63 6.712 20.135L143.82 434.337l101.633-53.693q10.547-5.753 21.094 0l100.674 53.693-19.176-115.056q-1.918-11.506 6.712-20.135l82.456-81.498-113.138-16.3q-12.465-2.876-17.259-13.423z" />
</svg>
